X:22 
T:Kate Kearney
F:file ID misc.early/22kate
B:"Alexander's New Scrap Book" (as "Irish melody")
Z:bill@capeirish.com
L:1/8
M:6/8
Q:160
R:jig
K:D % source key = C
F/G/|AFA def|edc d2f|dfg gfd|fec dfa|
bab a2a|gfg f2e|fef dBA|B3 d2 ||
F/G/|AFA AFA|d2e d2d|dfa afd|fec dBA|
Bcd a2a|gfg f2e|fef dBA|B3 d3-|Hd6||
% Source file in misc.ear;y_ABC.rtf

